src/svg/11-flags/flag-my.svg

<?xml version="1.0" encoding="UTF-8" standalone="no"?>
<svg width="640px" height="480px" viewBox="0 0 640 480" version="1.1" xmlns="http://www.w3.org/2000/svg" xmlns:xlink="http://www.w3.org/1999/xlink">
    <g stroke="none" stroke-width="1" fill="none" fill-rule="evenodd">
        <rect fill="#CC0001" x="0" y="0" width="640" height="478.834951"></rect>
        <rect fill="#FFFFFF" x="0" y="439.389736" width="640" height="39.9445215"></rect>
        <rect fill="#FFFFFF" x="0" y="359.500693" width="640" height="39.9445215"></rect>
        <rect fill="#FFFFFF" x="0" y="279.61165" width="640" height="39.9445215"></rect>
        <rect fill="#FFFFFF" x="0" y="199.722607" width="640" height="39.9445215"></rect>
        <rect fill="#FFFFFF" x="0" y="119.833564" width="640" height="39.9445215"></rect>
        <rect fill="#FFFFFF" x="0" y="39.9445215" width="640" height="39.9445215"></rect>
        <rect fill="#010066" x="0" y="0" width="420" height="239.376623"></rect>
        <path d="M172.8,29.9220779 C122.956068,29.9220779 82.5,70.1390053 82.5,119.688312 C82.5,169.237615 122.956068,209.454542 172.8,209.454545 C190.808175,209.454545 207.586398,204.19893 221.678079,195.156804 C213.472149,197.981293 204.66525,199.526143 195.496797,199.526143 C151.29873,199.526146 115.427832,163.867284 115.427832,119.930468 C115.427832,75.9936519 151.298724,40.3347935 195.496797,40.3347935 C205.264209,40.3347935 214.620555,42.0746875 223.27734,45.2621428 C208.865094,35.5803399 191.491479,29.9220779 172.8,29.9220779 L172.8,29.9220779 Z" fill="#FFCC00"></path>
        <path d="M322.550203,166.418803 L284.513149,146.62453 L295.759518,187.135529 L270.318432,153.24777 L262.381379,194.493508 L254.575174,153.224147 L229.026734,187.035399 L240.401528,146.558345 L202.30188,166.238374 L230.604753,134.570596 L187.499999,136.221538 L227.125225,119.635232 L187.552791,102.930095 L230.652103,104.71038 L202.449797,72.9578205 L240.486848,92.7520942 L229.240483,52.2410943 L254.681569,86.1288536 L262.618622,44.8831161 L270.424827,86.1524727 L295.973267,52.3412245 L284.598473,92.8182789 L322.698121,73.1382496 L294.395248,104.806024 L337.499998,103.155086 L297.874776,119.741392 L337.447209,136.446529 L294.347897,134.666243 L322.550203,166.418803 Z" fill="#FFCC00"></path>
    </g>
</svg>

<svg xmlns="http://www.w3.org/2000/svg" width="640" height="480"><g fill="none" fill-rule="evenodd"><path fill="#CC0001" d="M0 0h640v478.835H0z"/><path fill="#FFF" d="M0 439.39h640v39.945H0zm0-79.89h640v39.946H0zm0-79.888h640v39.945H0zm0-79.89h640v39.946H0zm0-79.888h640v39.945H0zm0-79.89h640V79.89H0z"/><path fill="#010066" d="M0 0h420v239.377H0z"/><path fill="#FC0" d="M172.8 29.922c-49.844 0-90.3 40.217-90.3 89.766 0 49.55 40.456 89.767 90.3 89.767 18.008 0 34.786-5.256 48.878-14.298-8.206 2.824-17.013 4.37-26.18 4.37-44.2 0-80.07-35.66-80.07-79.597 0-43.936 35.87-79.595 80.07-79.595 9.766 0 19.123 1.74 27.78 4.927-14.413-9.682-31.787-15.34-50.478-15.34z"/><path fill="#FC0" d="M322.55 166.42l-38.037-19.795 11.247 40.51-25.442-33.887-7.937 41.246-7.802-41.27-25.548 33.81 11.374-40.476-38.1 19.68 28.303-31.667-43.105 1.655 39.626-16.587-39.572-16.705 43.1 1.78-28.203-31.75 38.038 19.793-11.245-40.51 25.443 33.887 7.937-41.247 7.805 41.27 25.547-33.812-11.375 40.48 38.1-19.68L294.4 104.81l43.104-1.65-39.625 16.585 39.57 16.707-43.1-1.78 28.203 31.75z"/></g></svg>
